X:1
T:The Ship's Carpenter
M:5/4
L:1/4
K:G
 F G| A3 G B| A3G/2-E/2 D| E3 D C| D3 z A| d3 c B| A3G/2-E/2| D| G3 c B|\
 A3 z/2A/2-B/2 c/2| d3 c B| A3G/2-E/2 D| G3 c B| A3 z G| A3 G B| A3G/2-E/2 D|\
 E3 D C| D2||
